X:1
T:Alma LLanera
T:Pedro Elias Gutiérrez
T:Alma LLanera
T:BarrenoF © 
T:BarrenoF © 
T:BarrenoF © 
T:BarrenoF © 
T:BarrenoF © 
C:Pedro Elias Gutiérrez
Z:BarrenoF ©
%%score { ( 1 3 ) | 2 }
L:1/8
M:3/4
K:F
V:1 treble nm="Piano" snm="Pno."
V:3 treble 
V:2 bass 
V:1
!pp!"^Tiempo de Joropo" z6 | z6 |: z6 | z6 |[K:bass]!<(! D,E, F,G, A,!<)!B, | A,2 ^C2 [G,A,]C | %6
 D,E, F,G, A,B, | A,2 ^C2 [G,A,]C |[K:treble] DE FG AB | A2 a4 | DE FG AB | A2 a4 |!p! d f2 e2 d | %13
 ^c e2 d2 c | d2 A4- | A6 | [Dd] f2 e2 d | ^c e2 d2 c | d2 A4- | A6 | [Dd] f2 e2 d | c d2 c2 B | %22
 A6 | G G2 A2 B | A2 d2 A2 | AG E2 F2 |1 D6 | A,4 z2 :|2 z F, z A, z D || z G, z B, z E | %30
 z G, A,B, A,G, | z G, A,B, A,G, | z F, z A, z D | z G, z B, z E | z G, A,B, A,G, | %35
 z G, A,B, A,G, |: z2 .a2 .A.a | z2 .a2 .A.a | z2 .a2 .A.a | z2 .b2 .B.b | z2 .a2 .A.a | %41
 z ^c eg fe :| z2 A2 [DF]A | z2 B2 [DE]B | z2 A2 [^CE]A | z ^C DG FE | D2 A2 [DF]A | z2 A2 [DF]A |: %48
 [Af][Af] z [Af] [Ge][Fd] | [Ge]2 [Ge]3 z | [Ge][Ge] z [Ge] [Gd][G^c] | [Fd]2 [FA]3 z | %52
 AA z A- c>c | B2 E4 | GG z G A>A | F2- D4 :| AA z A GF | A2 E4 | GG z G FE | D6 | AA z A GF | %61
 A2 E4 | GG z G FE ||[K:D] z F, z A, z D |: z G, z B, z E | z A, CB, A,G, | z A, CB, A,G, | %67
 z F, z A, z D | z G, z B, z E | z A, CB, A,G, | z A, CB, A,G, |!mf! A6- | A6- | A4 A2 | d3 c ed | %75
 f3 e dc | e3 d cB | c6- | c6 | z2 B2 B2 | d3 d dd | c2 A4- | A6 | z2 B2 B2 | d3 d dd | c2 A4- | %86
 A6 | z2 B2 B2 | d3 d dd | A2 A2 AA | B2 G2 GG | A2 F2 z2 | z2 G2 E2 | A6- | A6- | A6- | %96
 A2 G2 E2 ||1 D2 z2 z2 :| D2 z2 z2 | A2 A2 z2 || B2 B2 z2 | c2 c2 z2 | A2 A2 z2 | %103
 [df][Bd] [ce][Ac] [Bd][GB] | [EG]6 | [ce][Ac] [Bd][GB] [Ac][FA] | [DF]6 | z2 [FA]2 ([DF][FA]) | %108
 z2 [GB]2 ([EG][GB]) | z2 [Ac]2 [F-A][Ac] | z2 [FA]2 [D-F][FA] | fd ec dB | c2 [CGA]2 [CGA]2 | %113
 [GB]2 [GA][EG] [CF]E | D2 z2 z2 | [FA][FA] [FA][FA] [EG][DF] | [CA]2 [CE]4 | %117
 [EG][EG] [EG][EG] [DF][CE] | D2 a2 A-a | [FA][FA] [FA][FA] [EG][DF] | [CA]2 [CE]4 | %121
 [EG-][FA] [GB][Ac] [Bd][ce] |!ff! [df]2 [Adf][Adf] [Adf]2 | [Adf]2 [Adf]2 [Adf]2 | [Adf]2 z2 z2 | %125
 [Gce]2 d2 A2 | z2 [FAd][FAd] [FAd]2 | [FAd]2 [FAd]2 [FAd]2 | [FAd]2 x2 z2 | !>![Acea]2 z2 z2 | %130
 !>![dfad']2 z2 z2 |] %131
V:2
 D,,2 F,,2 A,,2 | A,,,2 ^C,,2 E,,2 |: D,,2 F,,2 A,,2 | A,,,3 ^C,, E,,2 | D,,E,, F,,G,, A,,B,, | %5
 A,,2 E,,2 A,,2 | D,,E,, F,,G,, A,,B,, | A,,2 E,,2 A,,2 | D,,E,, F,,G,, A,,B,, | A,,2 E,,2 A,,2 | %10
 D,,E,, F,,G,, A,,B,, | A,,2 E,,2 A,,2 | D,,2 F,,2 A,,2 | A,,,2 ^C,,2 E,,2 | D,,2 F,,2 A,,2 | %15
 A,,,2 ^C,,2 E,,2 | D,,2 F,,2 A,,2 | A,,,2 ^C,,2 E,,2 | D,,2 F,,2 A,,2 | A,,,2 ^C,,2 E,,2 | %20
 D,,2 F,,2 A,,2 | E,,2 G,,2 C,2 | F,,2 A,,2 C,2 | G,,2 B,,2 E,2 | A,,2 D,2 F,2 | A,,2 ^C,2 A,,2 |1 %26
 D,,2 F,,2 A,,2 | A,,,2 ^C,,2 E,,2 :|2 D,,2 F,,2 A,,2 || G,,2 B,,2 E,2 | A,,,2 ^C,,2 E,,2 | %31
 A,,,2 ^C,,2 E,,2 | D,,2 F,,2 A,,2 | G,,2 B,,2 E,2 | A,,,2 ^C,,2 E,,2 | A,,,2 ^C,,2 E,,2 |: %36
 D,,2 F,,2 A,,2 | E,,2 G,,2 A,,2 | F,,2 A,,2 D,2 | G,,2 B,,2 _E,2 | A,,2 ^C,2 =E,2 | %41
 A,,,2 ^C,,2 E,,2 :| D,,2 F,,2 A,,2 | G,,2 B,,2 D,2 | A,,2 ^C,2 E,2 | A,,,2 ^C,,2 E,,2 | %46
 D,,2 F,,2 A,,2 | D,,2 F,,2 A,,2 |: D,,2 F,,2 A,,2 | A,,,2 ^C,,2 E,,2 | A,,,2 ^C,,2 E,,2 | %51
 D,,2 F,,2 A,,2 | ^F,,2 A,,2 D,2 | G,,2 B,,2 D,2 | A,,2 ^C,2 E,2 | D,2 F,2 A,2 :| D,,2 F,,2 A,,2 | %57
 A,,,2 ^C,,2 E,,2 | A,,,2 ^C,,2 E,,2 | D,,2 F,,2 A,,2 | D,,2 F,,2 A,,2 | A,,,2 ^C,,2 E,,2 | %62
 A,,,2 ^C,,2 E,,2 ||[K:D] D,,2 F,,2 A,,2 |: G,,2 B,,2 E,2 | A,,2 C,2 E,2 | A,,2 C,2 E,2 | %67
 D,,2 G,,2 A,,2 | G,,2 B,,2 E,2 | A,,2 C,2 E,2 | A,,2 C,2 E,2 | D,,2 F,,2 A,,2 | E,,2 G,,2 A,,2 | %73
 F,,2 A,,2 D,2 | E,,2 G,,2 B,,D, | D,,2 F,,2 A,,D, | G,,2 B,,2 E,G, | A,,2 C,2 E,2 | A,,2 C,2 E,2 | %79
 G,,2 D,2 G,2 | G,,2 D,2 G,B, | A,,2 C,2 E,2 | A,,2 C,2 E,2 | G,,2 D,2 G,2 | G,,2 D,2 G,-B, | %85
 A,,2 C,2 E,2 | A,,2 C,2 E,2 | G,,2 D,2 G,2 | G,,2 D,2 G,B, | A,,2 C,2 E,A, | G,,2 D,2 G,B, | %91
 F,,2 A,,2 D,A, | E,,2 G,,2 D,A, | D,,2 F,,2 A,,2 | D,,2 F,,2 A,,2 | A,,,2 E,,2 A,,2 | %96
 A,,2 E,2 A,-G, ||1 D,,2 F,,2 A,,2 :| D,,2 F,,2 A,,2 | D,,2 F,,2 A,,2 || G,,2 B,,2 D,2 | %101
 A,,2 C,2 E,2 | D,,2 F,,2 A,,2 | D,,2 F,,2 A,,D, | A,,2 E,2 G,A, | A,,2 E,2 G,A, | D,,2 F,,2 A,,2 | %107
 D,,2 F,,2 A,,2 | G,,2 B,,2 E,2 | A,,2 C,2 E,2 | D,,2 F,,2 A,,2 | D,2 F,2 G,D | A,,2 E,2 G,-A, | %113
 A,,2 E,2 G,A, | D,,2 F,,2 A,,2 | D,2 A,2 A,,A, | C,2 A,2 A,,A, | E,2 A,2 A,,A, | D,2 A,2 A,,A, | %119
 D,2 A,2 A,,A, | C,2 A,2 A,,A, | E,2 A,2 A,,A, | z2 [D,,D,][D,,D,] [D,,D,]2 | %123
 [D,,D,]2 [D,,D,]2 [D,,D,]2 | [D,,D,]2 z2 z2 | [A,,A,]2 z2 z2 | z2 [D,,D,][D,,D,] [D,,D,]2 | %127
 [D,,D,]2 [D,,D,]2 [D,,D,]2 | [D,,D,]2 z2 z2 | [A,,,A,,]2 z2 z2 | [D,,D,]2 z2 z2 |] %131
V:3
 x6 | x6 |: x6 | x6 |[K:bass] x6 | x6 | x6 | x6 |[K:treble] x6 | x6 | x6 | x6 | x6 | x6 | %14
 z2 A2 F2 | E G2 F2 E | x6 | x6 | z2 A2 F2 | E G2 F2 E | x6 | x6 | x6 | x6 | x6 | x6 |1 x6 | x6 :|2 %28
 x6 || x6 | x6 | x6 | x6 | x6 | x6 | x6 |: x6 | x6 | x6 | x6 | x6 | x6 :| x6 | x6 | x6 | x6 | x6 | %47
 x6 |: x6 | x6 | x6 | x6 | x6 | x6 | x6 | x6 :| x6 | x6 | x6 | x6 | x6 | x6 | x6 ||[K:D] x6 |: x6 | %65
 x6 | x6 | x6 | x6 | x6 | x6 | z2 [DF]2 A,D | z2 [EG]2 A,C | z2 [DF]2 A,D | z2 [GA]2 z2 | %75
 z2 [FA]2 z2 | z2 [EG]2 z2 | z2 [CE]2 EG | z2 [CE]E G z | x2 [B,D]2 DG | z2 [GB]2 z2 | %81
 z2 [CA]2 CE | z2 [CG]2 CE | x2 [B,D]2 DG | z2 [GB]2 z2 | z2 [CG]2 CE | z2 [CG]2 CE | %87
 x2 [B,D]2 DG | z2 [GB]2 z2 | z2 [CG]2 z2 | z2 [B,D]2 z2 | z2 [A,D]2 x2 | z4 C2 | z2 [DF]2 A,D | %94
 z2 [DF]2 A,D | z2 [EG]2 A,C | z2 E2 C2 ||1 x F, z A, z D :| x2 [F,A,]2 DF | z2 [DF]2 [DF][FA] || %100
 z2 G2 [EG][GB] | z2 A2 [EG][Ac] | z2 F2 [DF][FA] | x6 | z2 [A,C]2 z2 | x6 | z2 [FA]2 [DF][FA] | %107
 x6 | x6 | x6 | x6 | x6 | x6 | x6 | x2 [FA]2 [DF][FA] | x6 | x6 | x6 | x6 | x6 | x6 | x6 | z2 a4- | %123
 a6- | a2 x2 x2 | x6 | d6- | d6- | x2 z2 x2 | x6 | x6 |] %131

